picto/station-assistance-framed.svg

<svg class="color-immutable" width="30" height="30" viewBox="0 0 30 30" fill="none" xmlns="http://www.w3.org/2000/svg"><path d="M0 0H30V30H0V0Z" fill="#2D327D"/><path d="M25.5 3C26.325 3 27 3.675 27 4.5V25.5C27 26.325 26.325 27 25.5 27H4.5C3.675 27 3 26.325 3 25.5V4.5C3 3.675 3.675 3 4.5 3H25.5ZM25.5 2.625H4.5C3.46613 2.625 2.625 3.46613 2.625 4.5V25.5C2.625 26.5339 3.46613 27.375 4.5 27.375H25.5C26.5339 27.375 27.375 26.5339 27.375 25.5V4.5C27.375 3.46613 26.5339 2.625 25.5 2.625Z" fill="white"/><path d="M21.3625 15.0995L23.9999 17.7384V24H16.1091C15.7607 24 15.4802 23.7178 15.4802 23.3724C15.4802 23.3575 15.4802 23.3427 15.481 23.327C15.482 23.2711 15.4922 23.2163 15.5117 23.1654C15.6585 22.7653 16.0394 22.4997 16.4648 22.4997H16.4834H18.674C18.9433 22.4997 19.1626 22.2806 19.1626 22.0123V20.7411C19.1626 20.5425 19.0828 20.3521 18.9414 20.2119L14.8556 16.1244C14.5826 15.8538 14.5826 15.4136 14.8541 15.1422C15.1256 14.8707 15.5657 14.8707 15.8371 15.1422L20.1825 19.4886L20.4213 19.2499L16.5371 15.3661L16.8011 15.0996C16.9144 14.9882 17.0669 14.9251 17.2256 14.9251C17.3855 14.9251 17.5377 14.9882 17.6501 15.0996L21.1246 18.5749L21.3624 18.3354L18.3934 15.3661L18.6572 15.0996C18.7706 14.9882 18.9229 14.9251 19.0817 14.9251C19.2416 14.9251 19.3939 14.9882 19.5065 15.0996L22.0517 17.6455L22.2905 17.4078L20.2496 15.3661L20.5134 15.0995C20.6268 14.9881 20.7791 14.925 20.9381 14.925C21.0977 14.925 21.2501 14.9881 21.3625 15.0995Z" fill="white"/><path d="M8.63737 19.4005L6 16.7617V10.5H13.8907C14.2392 10.5 14.5196 10.7821 14.5196 11.1276C14.5196 11.1424 14.5196 11.1573 14.5189 11.173C14.5178 11.2288 14.5076 11.2837 14.4881 11.3347C14.3414 11.7347 13.9605 12.0004 13.535 12.0004H13.5164H11.3259C11.0565 12.0004 10.8373 12.2194 10.8373 12.4878V13.7589C10.8373 13.9575 10.9171 14.148 11.0584 14.2882L15.1443 18.3757C15.4173 18.6463 15.4173 19.0865 15.1458 19.3579C14.8744 19.6294 14.4342 19.6294 14.1628 19.3579L9.81735 15.0115L9.57855 15.2502L13.4626 19.134L13.1987 19.4006C13.0854 19.5119 12.933 19.5751 12.7741 19.5751C12.6144 19.5751 12.4621 19.5119 12.3496 19.4006L8.8752 15.9253L8.63737 16.1648L11.6065 19.134L11.3426 19.4006C11.2292 19.5119 11.077 19.5751 10.9181 19.5751C10.7583 19.5751 10.606 19.5119 10.4935 19.4006L7.94812 16.8546L7.7094 17.0924L9.7503 19.1341L9.48645 19.4006C9.37305 19.512 9.2208 19.5752 9.06187 19.5752C8.9022 19.575 8.7498 19.5119 8.63737 19.4005Z" fill="white"/><path d="M7.88573 6.666H7.41818C7.40895 6.55628 7.36823 6.47243 7.29593 6.41453C7.22363 6.35663 7.12238 6.3276 6.99218 6.3276C6.8763 6.3276 6.7863 6.3504 6.72225 6.39608C6.6582 6.44175 6.6261 6.5055 6.6261 6.58755C6.6261 6.66135 6.65685 6.71468 6.71835 6.74753C6.77783 6.78038 6.92858 6.8265 7.17053 6.88598C7.42583 6.94958 7.60275 7.01363 7.70115 7.0782C7.88265 7.19715 7.9734 7.36275 7.9734 7.575C7.9734 7.8078 7.88213 7.99133 7.69965 8.12565C7.5387 8.24355 7.32075 8.3025 7.04595 8.3025C6.7404 8.3025 6.50303 8.23275 6.33383 8.09333C6.16463 7.9539 6.07695 7.75545 6.0708 7.49805H6.55988C6.56708 7.62315 6.59933 7.71593 6.65678 7.77645C6.747 7.87283 6.8829 7.92105 7.0644 7.92105C7.18748 7.92105 7.28483 7.89698 7.3566 7.84875C7.4376 7.7934 7.4781 7.71803 7.4781 7.62263C7.4781 7.5273 7.42118 7.45755 7.3074 7.41345C7.24485 7.38885 7.09718 7.34423 6.86445 7.27965C6.71888 7.23968 6.60503 7.20173 6.52298 7.1658C6.44093 7.12988 6.3753 7.0899 6.3261 7.0458C6.21128 6.94328 6.15383 6.80175 6.15383 6.6213C6.15383 6.40493 6.24353 6.2337 6.423 6.10755C6.57578 5.99985 6.77423 5.94608 7.01828 5.94608C7.23255 5.94608 7.41203 5.9886 7.55663 6.07373C7.76468 6.19583 7.8744 6.39323 7.88573 6.666Z" fill="white"/><path d="M9.29147 5.94614C9.59087 5.94614 9.84212 6.04454 10.0451 6.24149C10.2686 6.45884 10.3805 6.75314 10.3805 7.12431C10.3805 7.44426 10.2959 7.70931 10.1267 7.91954C9.91952 8.17484 9.63655 8.30249 9.27767 8.30249C8.91055 8.30249 8.62247 8.17176 8.4133 7.91031C8.24822 7.70316 8.16565 7.44224 8.16565 7.12746C8.16565 6.75419 8.27282 6.46349 8.4871 6.25536C8.69822 6.04919 8.96642 5.94614 9.29147 5.94614ZM9.26687 6.35526C9.08642 6.35526 8.94077 6.42396 8.83007 6.56136C8.71727 6.69981 8.66087 6.88641 8.66087 7.12124C8.66087 7.36424 8.71622 7.55346 8.827 7.68876C8.87927 7.75334 8.94542 7.80359 9.02545 7.83951C9.1054 7.87544 9.19052 7.89336 9.28075 7.89336C9.46022 7.89336 9.60168 7.83081 9.70525 7.70571C9.82525 7.56216 9.88517 7.36679 9.88517 7.11974C9.88517 6.88596 9.83035 6.69981 9.72062 6.56144C9.61187 6.42396 9.46067 6.35526 9.26687 6.35526Z" fill="white"/><path d="M12.383 6.666H11.9155C11.9063 6.55628 11.8655 6.47243 11.7932 6.41453C11.7209 6.35663 11.6197 6.3276 11.4895 6.3276C11.3736 6.3276 11.2836 6.3504 11.2196 6.39608C11.1554 6.44168 11.1234 6.5055 11.1234 6.58755C11.1234 6.66135 11.1542 6.71468 11.2157 6.74753C11.2751 6.78038 11.4259 6.8265 11.6678 6.88598C11.9231 6.94958 12.1001 7.01363 12.1985 7.0782C12.38 7.19715 12.4707 7.36275 12.4707 7.575C12.4707 7.8078 12.3794 7.99133 12.197 8.12565C12.036 8.24355 11.8181 8.3025 11.5433 8.3025C11.2377 8.3025 11.0003 8.23275 10.8311 8.09333C10.6619 7.9539 10.5743 7.75545 10.5681 7.49805H11.0572C11.0644 7.62315 11.0966 7.71593 11.1541 7.77645C11.2443 7.87283 11.3802 7.92105 11.5617 7.92105C11.6848 7.92105 11.7821 7.89698 11.8539 7.84875C11.9349 7.7934 11.9754 7.71803 11.9754 7.62263C11.9754 7.5273 11.9185 7.45755 11.8047 7.41345C11.7422 7.38885 11.5945 7.34423 11.3618 7.27965C11.2162 7.23968 11.1023 7.20173 11.0203 7.1658C10.9382 7.12988 10.8726 7.0899 10.8234 7.0458C10.7086 6.94328 10.6511 6.80175 10.6511 6.6213C10.6511 6.40493 10.7408 6.2337 10.9203 6.10755C11.0731 5.99985 11.2715 5.94608 11.5156 5.94608C11.7299 5.94608 11.9093 5.9886 12.0539 6.07373C12.2621 6.19583 12.3718 6.39323 12.383 6.666Z" fill="white"/></svg>

<svg class="color-immutable" width="30" height="30" viewBox="0 0 30 30" fill="none" xmlns="http://www.w3.org/2000/svg"><g clip-path="url(#a)"><path d="M0 0h30v30H0V0Z" fill="#2D327D"/><path d="M25.5 3c.825 0 1.5.675 1.5 1.5v21c0 .825-.675 1.5-1.5 1.5h-21c-.825 0-1.5-.675-1.5-1.5v-21C3 3.675 3.675 3 4.5 3h21Zm0-.375h-21A1.877 1.877 0 0 0 2.625 4.5v21c0 1.034.841 1.875 1.875 1.875h21a1.877 1.877 0 0 0 1.875-1.875v-21A1.877 1.877 0 0 0 25.5 2.625Z" fill="#fff"/><path d="M21.363 15.1 24 17.738V24h-7.89a.628.628 0 0 1-.63-.628l.001-.045a.476.476 0 0 1 .03-.162c.148-.4.528-.665.954-.665H18.674c.27 0 .489-.22.489-.488v-1.27a.745.745 0 0 0-.222-.53l-4.085-4.088a.695.695 0 1 1 .981-.982l4.346 4.347.238-.24-3.884-3.883.264-.266a.606.606 0 0 1 .85 0l3.474 3.475.237-.24-2.969-2.969.264-.266a.606.606 0 0 1 .85 0l2.545 2.545.239-.237-2.041-2.042.263-.266a.606.606 0 0 1 .85 0Z" fill="#fff"/><path d="M8.637 19.4 6 16.763V10.5h7.89c.35 0 .63.282.63.628l-.001.045a.48.48 0 0 1-.03.162c-.148.4-.529.665-.954.665h-2.209a.489.489 0 0 0-.489.488v1.27c0 .2.08.39.221.53l4.086 4.088a.695.695 0 1 1-.981.982L9.817 15.01l-.238.24 3.884 3.883-.264.267a.607.607 0 0 1-.85 0l-3.474-3.476-.238.24 2.97 2.969-.264.267a.607.607 0 0 1-.85 0l-2.545-2.546-.239.237 2.041 2.042-.264.267a.606.606 0 0 1-.849 0ZM7.886 6.666h-.468a.342.342 0 0 0-.122-.251.474.474 0 0 0-.304-.087.46.46 0 0 0-.27.068.222.222 0 0 0-.096.192c0 .073.03.127.092.16.06.032.21.079.453.138.255.064.432.128.53.192a.563.563 0 0 1 .272.497.647.647 0 0 1-.273.55c-.161.119-.38.178-.654.178-.306 0-.543-.07-.712-.21-.17-.14-.257-.338-.263-.595h.489c.007.125.04.218.097.278.09.097.226.145.407.145.123 0 .22-.024.293-.072a.26.26 0 0 0 .121-.226c0-.096-.057-.165-.17-.21a6.006 6.006 0 0 0-.444-.133 2.616 2.616 0 0 1-.341-.114.736.736 0 0 1-.197-.12.54.54 0 0 1-.172-.425c0-.216.09-.387.269-.513.153-.108.351-.162.595-.162.215 0 .394.043.539.128.208.122.317.32.329.592ZM9.291 5.946c.3 0 .551.099.754.295.224.218.335.512.335.883 0 .32-.084.585-.253.796-.207.255-.49.382-.85.382-.366 0-.655-.13-.864-.392-.165-.207-.247-.468-.247-.783 0-.373.107-.664.321-.872.211-.206.48-.309.804-.309Zm-.024.41a.534.534 0 0 0-.437.205c-.113.139-.17.325-.17.56 0 .243.056.432.167.568a.53.53 0 0 0 .198.15c.08.036.166.054.256.054.18 0 .32-.062.424-.187.12-.144.18-.34.18-.586 0-.234-.055-.42-.164-.559a.546.546 0 0 0-.454-.206ZM12.383 6.666h-.467a.342.342 0 0 0-.123-.251.474.474 0 0 0-.303-.087.459.459 0 0 0-.27.068.221.221 0 0 0-.097.192c0 .073.031.127.093.16.06.032.21.079.452.138.255.064.432.128.53.192a.563.563 0 0 1 .273.497.647.647 0 0 1-.274.55c-.161.119-.379.178-.654.178-.305 0-.543-.07-.712-.21-.17-.14-.257-.338-.263-.595h.49c.006.125.039.218.096.278.09.097.226.145.408.145.123 0 .22-.024.292-.072a.26.26 0 0 0 .121-.226c0-.096-.056-.165-.17-.21a5.998 5.998 0 0 0-.443-.133 2.612 2.612 0 0 1-.342-.114.735.735 0 0 1-.197-.12.54.54 0 0 1-.172-.425c0-.216.09-.387.27-.513.152-.108.35-.162.595-.162.214 0 .393.043.538.128.208.122.318.32.329.592Z" fill="#fff"/></g><defs><clipPath id="a"><path fill="#fff" d="M0 0h30v30H0z"/></clipPath></defs></svg>
